X:1
T:Quasi adagio
T:33-Allegro non troppo 
T:Béla Bartók Revised and Arranged by the Composer, January 1945 
T:Book 1 (after Hungarian Folksongs)
T:For Children Nr 33 , Sz 42
C:Bela bartok
%%score { ( 1 3 ) | ( 2 4 ) }
L:1/8
Q:1/4=104
M:4/4
K:C
V:1 treble nm="Piano"
V:3 treble 
V:2 bass 
V:4 bass 
V:1
"^Allegro non troppo"!f! .!2!A.!1!A.!2!A.!1!A .!3!B.!2!A !tenuto!!1!G2 | %1
 .!2!E.!1!E(.!2!E.A) .!2!E.!1!E !tenuto!!2!E2 | .!2!A.!1!A.!2!A.!1!A .B.A !tenuto!G2 | %3
 .!2!E.!1!E(.!2!E.A) .!2!E.!1!E !tenuto!!2!E2 | (.!5!G.!4!F) !tenuto!.E2 (.!3!C.B,) !tenuto!.A,2 | %5
 (.!4!D.!4!D.C.B,) !tenuto!.A,2 !tenuto!.A,2 | (.!5!G.F) !tenuto!.E2 (.!3!C.B,) !tenuto!.A,2 | %7
 (.!3!D.!4!D.C.B,) !tenuto!.A,2 !tenuto!.A,2 | z8 | z8 |!f! .!2!A.!1!A.!2!A.!1!A .B.A !tenuto!G2 | %11
 .!2!E.!1!E(.!2!E.A) .!2!E.!1!E !tenuto!!2!E2 | .!2!A.!1!A.!2!A.!1!A .B.A !tenuto!G2 | %13
 .!2!E.!1!E(!2!EA) .!2!E.!1!E !tenuto!!2!E2 | %14
!pp! (.!5!g.!4!f) !tenuto!.!3!e2 (.!3!c.!2!B) !tenuto!.!1!A2 | %15
 (.!5!d.!5!d.!4!c.!3!B) !tenuto!.!2!A2 !tenuto!.!2!A2 | %16
 (.!5!g.f) !tenuto!.e2 (.!3!c.B) !tenuto!.A2 | (.!5!d.d.c.B) !tenuto!.!2!A2 !tenuto!.!2!A2 | %18
!>(! z8 | x4!>)! z4 |] %20
V:2
!ped! !^!!5!F,,2 !3!!2!!1![A,CE]2!ped-up!!ped! !^!!5!C,,2 !4!!2!!1![G,B,E]2!ped-up! | %1
!ped! !^!!5!F,,2 !2!!1![A,B,]2!ped-up!!ped! !^!!5!E,,2 !3!!1![G,B,]2!ped-up! | %2
!ped! !^!!5!D,,2 !4!!2!!1![D,^F,C]2!ped-up!!ped! !^!!5!G,,2 !4!!2!!1![D,G,B,]2!ped-up! | %3
!ped! !^!!5!A,,2 !4!!2!!1![E,A,^C]2!ped-up!!ped! !^!!5!C,,2 !2!!1![G,=C]2!ped-up! | %4
!p! (.!2!G,.!3!F,) !tenuto!.!4!E,2 (.!3!C,.B,,) !tenuto!.A,,2 | !^!!1!^F,8 | %6
 (.!2!G,.F,) !tenuto!.E,2 (.!3!C,.B,,) !tenuto!.A,,2 | (!1!=F,8- |!>(! F,8- | %9
 !2!F,2!>)!!pp! !3!E,2) z4 | %10
!ped! !^!!5!A,,2 !3!!2!!1![A,CE]2!ped-up!!ped! !^!!5!E,,2 !4!!2!!1![G,B,E]2!ped-up! | %11
!ped! !^!!5!F,,2 !2!!1![A,B,]2!ped-up!!ped! !^!!5!C,,2 !4!!2!!1![E,G,C]2!ped-up! | %12
!ped! !^!!5!F,,2 !3!!1![A,D]2!ped-up!!ped! !^!!5!E,,2 !4!!2!!1![G,B,E]2!ped-up! | %13
!ped! !^!!5!D,,2 !5!!2!!1![D,^F,C]2!ped-up!!ped! !^!!5!^C,,2 !4!!2![E,^G,^C]2!ped-up! | !^!A,8 | %15
 !^!^F,8 | !^!!1!A,8 | (!^!!1!=F,8- | z8 | !tenuto!!2!F,2 !3!E,2) z2 z2 |] %20
V:3
 x8 | x8 | x8 | x8 | !^!!1!A,8 | x8 | !^!!1!A,8 | x8 | x8 | x8 | x8 | x8 | x8 | x8 | !^!!1!A8 | %15
 !^!!1!^F8 | !^!!1!A8 | (!^!!1!=F8- | F8- | !tenuto!!3!F2!ppp! !2!E2) z2 z2 |] %20
V:4
 x8 | x8 | x8 | x8 | x8 | (.!2!D,.D,.C,.B,,) !tenuto!.A,,2 !tenuto!.A,,2 | x8 | %7
 .!2!D,.D,.C,.B,, !tenuto!.A,,2 !tenuto!.A,,2 | x8 | x8 | x8 | x8 | x8 | x8 | %14
 (.!1
2
!G,.!3!F,) !tenuto!.!4!E,2 .!3!C,.B,, !tenuto!.A,,2 | %15
 (.!1
2
!D,.D,.C,.B,,) !tenuto!.A,,2 !tenuto!.A,,2 | %16
 (.!2!G,.F,) !tenuto!.E,2 (.!3!C,.B,,) !tenuto!.A,,2 | %17
 (.!2!D,.D,.C,.B,,) !tenuto!.A,,2 !tenuto!.A,,2 | F,8- | z8 |] %20

